public/avatar/item1/46.svg

<svg xmlns:xlink="http://www.w3.org/1999/xlink" height="65.4" width="80.15" xmlns="http://www.w3.org/2000/svg"><use height="36" transform="translate(16.45 22.7)" width="30.9" xlink:href="#a"/><defs><g id="a" fill-rule="evenodd"><path d="M3.7 20.75q-.8.55-2.1-.9-.35.55-1.35-.15l-1.4.15q-1.3 1.45-2.05.9-.2.35-1.1.65l2.5 1.35 1.35-.95v-.45l.7.05.7-.05v.45l1.3.95q.75-.9 2.5-1.35-.9-.3-1.05-.65m9-11.85.15 2q2.4 1.15 1.75 4.35 1.45 1.65 1.1 5.85l-2.1-.1q1.05 1.15.7 5.75-1.25-1-1.85-.65.3 1.6-1.1 5.25-.95-1.1-1.75-1-.1 2-1.3 5.55l-1.6-1.4q-.4 1.5-1.35 2.15L4.2 40.8q-1 3.7-3 4.1-.15-3.15-1.7-5.65l-1.55-1.85-.75 1.75q-1.8-1.25-2.6-3.3L-5.9 34l-1.15 2q-2-3.65-2.1-5.65-.55-.05-.8.85l-.2.9q-2.15-4.4-1.8-6l-1.6.3q-.65-4.25.4-5.4l-1.25.05-.65.45q-.35-4.8.9-6.25-.65-3.2 1.75-4.35l.2-2q.85.45 1.65.85l-.65 2q.75.55 1.65 2.35.9 1.7.85 2.3-.05.4.5.7.7.35.8.8 3.7-3.55 6.35-2l1.3.75 1.25-.75q2.65-1.5 6.35 2 .15-.45.8-.8.6-.3.55-.7-.1-.6.8-2.3.9-1.8 1.7-2.35l-.7-2q.95 0 1.7-.85" fill="#0d090e" transform="translate(15.15 -8.9)"/><path d="m3.85 19.8-.5.2q-.45 0-1.1-.75l-1.2-.15-.45-.15h-.75l-.45.15-1.2.15q-.55.75-1.1.75l-.7-.2-.3.45-.7.35-2.65 1 2.75.65q1.4.25 2.05 1.05l.45.6 2.25-1.6 2.2 1.6.5-.6q.65-.8 2-1.05l2.75-.65-2.65-1-.65-.35.05.1-.6-.55m8.75-7.65-.05-.45q1.3.7 1.3 2.4l-.1.95-.1.45.3.3q.95 1.15.95 4.2v.05l-1.75.2-.9.55.7.75q.55.65.55 3.55v.2q-.85-.25-1.45 0l-.6.3.15.65v.4l-.65 3.25q-.75-.45-1.4-.4l-.75.05-.05.75q-.05 1.2-.9 4.1l-1.6-1.45-.35 1.3q-.35 1.2-1.05 1.7-.6.5-1.05 2.8-.85 3.85-1.9 4.85-.4-2.85-1.9-5.1l-1.5-1.75-.9-.75-.75 1.75q-1.05-1.05-1.6-2.5l-.3-1.35-.25-2.65L-7 34.2q-1.25-2.85-1.3-3.9l-.05-.75-.75-.05q-.55-.05-1.05.45-1-2.45-1-3.5v-.2l.15-.65-.6-.3-1.2-.05-.1-1.4q0-1.8.4-2.3l.7-.75-.9-.55-1.55-.15q0-3.4.75-4.3l.3-.3-.1-.45-.1-.95q0-1.7 1.3-2.4l-.05.45.45.3q.6.35 1.4 1.95.7 1.4.75 1.9l-.05.2q0 .7 1 1.35.35.15.4.3l.4 1.4 1-1.05 1.9-1.45q2.1-1.2 3.4-.4l1.75 1 1.7-1q2.15-1.25 5.3 1.85l1.05 1.05.35-1.4q.05-.15.4-.3 1-.65 1-1.35v-.15q0-.5.75-1.95.75-1.55 1.35-1.95l.45-.3" fill="#a96f3a" transform="translate(15.15 -8.9)"/><path d="M3.6 18.15.7 17.8q3.1-2.2 5.65.5 1.65 1.8 5.7 1.15 3.75-.55-2.15 1.3l2.05 1q-1.45 1.05-3.15.75.55.3 1.9 1.85l-2.4-.3q.65.45 1.55 3.7-.9-1.55-2.85-2.2.75.6.25 4.55L5 26.7q.45.75.85 4.35L3.3 28.5q.8 1.6.65 7.1l-1.3-1.3-.5 8.6q0-2.1-.9-7L.3 31.4v5.35l-2.7-6.5-.8 2.25q-.65 2.8.05 5.25-2.05-1.9-1.8-5.6l.65-3.35-1 1.45Q-6.45 32.1-7 34.2q-.85-1.45-.85-4.4 0-2.3-.45-2.2-.65.15-1.3 1.25l-.55 1.1-.95-2.9.7-3.1q-.7 0-2.4 1.05-.45-1.85.15-3.15.45-1 2.2-1.95-2.2-1.35-3.65 0 0-1.8.8-3.1l.75-.95q.7-1.1.4-2.8L-11 14.8q.8 1.3.2 1.4-.6.1-1.45 1.05l-.7.95 2.25-.95q1.2 0 2.5.9h-1.95q2.4 1.05 5.45-.9 2.65-1.8 5 1.45-3.25-.5-4.3.7-1.6 1.9-6.15 2.15l2.25.25-1.9.8 3.8-.1-.6.25q-.75.55-1.5 2.1.75-.95 2.3-1.7l1.4-.5-.8 2.6q.35-.95 1.25-1.5l.85-.35.05 2.6 1.55-2.15-.25 2.7q.25-1.2 1.95-4.05-1.35 3.3-.55 7.6l.7-5.5q0 2.25 1.7 6.45.2-2.95-.8-6.35l3 3Q4 26.2 2.9 24.35l3.3 2.25q-.8-1.5-2.05-2.4 1.25 0 3.4.8L5 22.8l3.15.45q.65-.45-1.35-1.5l2.4-.3q-1.05.25-2.85-1.8-1.1-1.25-2.75-1.5" fill="#cf9f6f" transform="translate(15.15 -8.9)"/><path d="M-.95 18.35Q-4 18.25-6.6 20q-1.15.8-4.25.85L-8 19.4l-2.35-.5 1.1.1q1 .25 3.1-1.15 2.25-1.55 3.3-1.55 2.25 0 2.9 1.55-2.3-.9-3.4-.65-1.5.3 2.4 1.15m-6.8 4.55-1.5 2.7 3.4-1.55-.3 3.95 2.3-2.65.4 3.45 1-1.95 1.55 4.6-1.5-2.35q-.8.75-1.4 2.6-.7 2-.4 3.5-.75-2.9-.3-5.35l.6-1.9-1.7 1.5q-1.7 1.6-1.85 2.25l.2-5.5-1.4.7q-1.45.8-1.7 1.4l.6-4.5-2.75.5.35-1.05q.55-1.15 1.45-1.4l2.75-.15-2.75 1.7q1.95-.6 2.95-.5m-6.05-4q.15-1.8 1.15-2.9 1-1.05.75-2.3.65 2.05.2 2.4-1.9 1.5-2.1 2.8m15.7-1.25.95-.4 1.95.15 2.15 1.65q1.4 1.05 2.45.9l2.2-.3q-2.9 1.25-4 .5-2.9-2.1-3.55-2.35l-2.15-.15" fill="#ffdea4" transform="translate(15.15 -8.9)"/><path d="M14.3 18.85q-2.2-1.2-3.05-1.1 1.1-.6 1.5-.55.75.1 1.55 1.65m-3-3.15.5-.9q.65-1 1.5-1.4-.55.4-.65.85-.1.6.8.55 0 .25-2.15.9" fill="#cf9f6f" transform="translate(15.15 -8.9)"/><path d="M2.3 27.15q1.25 3.75.65 6.7l-.65-6.7m-.85 4q1 3.75.6 7.35L.35 28.1l1.1 3.05M3.7 25.4l1.35.7q1.45 1.05 1.75 2.65L3.7 25.4m2.4-1.9 1.3.65q1.45.95 1.9 2.6L6.1 23.5" fill="#ffdea4" transform="translate(15.15 -8.9)"/></g></defs></svg>

<?xml version="1.0" encoding="UTF-8" standalone="no"?>
<svg xmlns:xlink="http://www.w3.org/1999/xlink" height="65.4px" width="80.15px" xmlns="http://www.w3.org/2000/svg">
  <g transform="matrix(1.0, 0.0, 0.0, 1.0, 31.6, 13.8)">
    <use height="36.0" transform="matrix(1.0, 0.0, 0.0, 1.0, -15.15, 8.9)" width="30.9" xlink:href="#shape0"/>
  </g>
  <defs>
    <g id="shape0" transform="matrix(1.0, 0.0, 0.0, 1.0, 15.15, -8.9)">
      <path d="M3.7 20.75 Q2.9 21.3 1.6 19.85 1.25 20.4 0.25 19.7 L-1.15 19.85 Q-2.45 21.3 -3.2 20.75 -3.4 21.1 -4.3 21.4 L-1.8 22.75 -0.45 21.8 -0.45 21.35 0.25 21.4 0.95 21.35 0.95 21.8 2.25 22.75 Q3.0 21.85 4.75 21.4 3.85 21.1 3.7 20.75 M12.7 8.9 L12.85 10.9 Q15.25 12.05 14.6 15.25 16.05 16.9 15.7 21.1 L13.6 21.0 Q14.65 22.15 14.3 26.75 13.05 25.75 12.45 26.1 12.75 27.7 11.35 31.35 10.4 30.25 9.6 30.35 9.5 32.35 8.3 35.9 L6.7 34.5 Q6.3 36.0 5.35 36.65 L4.2 40.8 Q3.2 44.5 1.2 44.9 1.05 41.75 -0.5 39.25 L-2.05 37.4 -2.8 39.15 Q-4.6 37.9 -5.4 35.85 L-5.9 34.0 -7.05 36.0 Q-9.05 32.35 -9.15 30.35 -9.7 30.3 -9.95 31.2 L-10.15 32.1 Q-12.3 27.7 -11.95 26.1 L-13.55 26.4 Q-14.2 22.15 -13.15 21.0 L-14.4 21.05 -15.05 21.5 Q-15.4 16.7 -14.15 15.25 -14.8 12.05 -12.4 10.9 L-12.2 8.9 Q-11.35 9.35 -10.55 9.75 L-11.2 11.75 Q-10.45 12.3 -9.55 14.1 -8.65 15.8 -8.7 16.4 -8.75 16.8 -8.2 17.1 -7.5 17.45 -7.4 17.9 -3.7 14.35 -1.05 15.9 L0.25 16.65 1.5 15.9 Q4.15 14.4 7.85 17.9 8.0 17.45 8.65 17.1 9.25 16.8 9.2 16.4 9.1 15.8 10.0 14.1 10.9 12.3 11.7 11.75 L11.0 9.75 Q11.95 9.75 12.7 8.9" fill="#0d090e" fill-rule="evenodd" stroke="none"/>
      <path d="M3.85 19.8 L3.35 20.0 Q2.9 20.0 2.25 19.25 L1.05 19.1 0.6 18.95 -0.15 18.95 -0.6 19.1 -1.8 19.25 Q-2.35 20.0 -2.9 20.0 L-3.6 19.8 -3.9 20.25 -4.6 20.6 -7.25 21.6 -4.5 22.25 Q-3.1 22.5 -2.45 23.3 L-2.0 23.9 0.25 22.3 2.45 23.9 2.95 23.3 Q3.6 22.5 4.95 22.25 L7.7 21.6 5.05 20.6 4.4 20.25 4.45 20.35 3.85 19.8 M12.6 12.15 L12.55 11.7 Q13.85 12.4 13.85 14.1 L13.75 15.05 13.65 15.5 13.95 15.8 Q14.9 16.95 14.9 20.0 L14.9 20.05 13.15 20.25 12.25 20.8 12.95 21.55 Q13.5 22.2 13.5 25.1 L13.5 25.3 Q12.65 25.05 12.05 25.3 L11.45 25.6 11.6 26.25 11.6 26.65 10.95 29.9 Q10.2 29.45 9.55 29.5 L8.8 29.55 8.75 30.3 Q8.7 31.5 7.85 34.4 L6.25 32.95 5.9 34.25 Q5.55 35.45 4.85 35.95 4.25 36.45 3.8 38.75 2.95 42.6 1.9 43.6 1.5 40.75 0.0 38.5 L-1.5 36.75 -2.4 36.0 -3.15 37.75 Q-4.2 36.7 -4.75 35.25 L-5.05 33.9 -5.3 31.25 -7.0 34.2 Q-8.25 31.35 -8.3 30.3 L-8.35 29.55 -9.1 29.5 Q-9.65 29.45 -10.15 29.95 -11.15 27.5 -11.15 26.45 L-11.15 26.25 -11.0 25.6 -11.6 25.3 -12.8 25.25 -12.9 23.85 Q-12.9 22.05 -12.5 21.55 L-11.8 20.8 -12.7 20.25 -14.25 20.1 Q-14.25 16.7 -13.5 15.8 L-13.2 15.5 -13.3 15.05 -13.4 14.1 Q-13.4 12.4 -12.1 11.7 L-12.15 12.15 -11.7 12.45 Q-11.1 12.8 -10.3 14.4 -9.6 15.8 -9.55 16.3 L-9.6 16.5 Q-9.6 17.2 -8.6 17.85 -8.25 18.0 -8.2 18.15 L-7.8 19.55 -6.8 18.5 -4.9 17.05 Q-2.8 15.85 -1.5 16.65 L0.25 17.65 1.95 16.65 Q4.1 15.4 7.25 18.5 L8.3 19.55 8.65 18.15 Q8.7 18.0 9.05 17.85 10.05 17.2 10.05 16.5 L10.05 16.35 Q10.05 15.85 10.8 14.4 11.55 12.85 12.15 12.45 L12.6 12.15" fill="#a96f3a" fill-rule="evenodd" stroke="none"/>
      <path d="M3.6 18.15 L0.7 17.8 Q3.8 15.6 6.35 18.3 8.0 20.1 12.05 19.45 15.8 18.9 9.9 20.75 L11.95 21.75 Q10.5 22.8 8.8 22.5 9.35 22.8 10.7 24.35 L8.3 24.05 Q8.95 24.5 9.85 27.75 8.95 26.2 7.0 25.55 7.75 26.15 7.25 30.1 L5.0 26.7 Q5.45 27.45 5.85 31.05 L3.3 28.5 Q4.1 30.1 3.95 35.6 L2.65 34.3 2.15 42.9 Q2.15 40.8 1.25 35.9 L0.3 31.4 0.3 36.75 -2.4 30.25 -3.2 32.5 Q-3.85 35.3 -3.15 37.75 -5.2 35.85 -4.95 32.15 L-4.3 28.8 -5.3 30.25 Q-6.45 32.1 -7.0 34.2 -7.85 32.75 -7.85 29.8 -7.85 27.5 -8.3 27.6 -8.95 27.75 -9.6 28.85 L-10.15 29.95 -11.1 27.05 -10.4 23.95 Q-11.1 23.95 -12.8 25.0 -13.25 23.15 -12.65 21.85 -12.2 20.85 -10.45 19.9 -12.65 18.55 -14.1 19.9 -14.1 18.1 -13.3 16.8 L-12.55 15.85 Q-11.85 14.75 -12.15 13.05 L-11.0 14.8 Q-10.2 16.1 -10.8 16.2 -11.4 16.3 -12.25 17.25 L-12.95 18.2 -10.7 17.25 Q-9.5 17.25 -8.2 18.15 L-10.15 18.15 Q-7.75 19.2 -4.7 17.25 -2.05 15.45 0.3 18.7 -2.95 18.2 -4.0 19.4 -5.6 21.3 -10.15 21.55 L-7.9 21.8 -9.8 22.6 -6.0 22.5 -6.6 22.75 Q-7.35 23.3 -8.1 24.85 -7.35 23.9 -5.8 23.15 L-4.4 22.65 -5.2 25.25 Q-4.85 24.3 -3.95 23.75 L-3.1 23.4 -3.05 26.0 -1.5 23.85 -1.75 26.55 Q-1.5 25.35 0.2 22.5 -1.15 25.8 -0.35 30.1 L0.35 24.6 Q0.35 26.85 2.05 31.05 2.25 28.1 1.25 24.7 L4.25 27.7 Q4.0 26.2 2.9 24.35 L6.2 26.6 Q5.4 25.1 4.15 24.2 5.4 24.2 7.55 25.0 L5.0 22.8 8.15 23.25 Q8.8 22.8 6.8 21.75 L9.2 21.45 Q8.15 21.7 6.35 19.65 5.25 18.4 3.6 18.15" fill="#cf9f6f" fill-rule="evenodd" stroke="none"/>
      <path d="M-0.95 18.35 Q-4.0 18.25 -6.6 20.0 -7.75 20.8 -10.85 20.85 L-8.0 19.4 -10.35 18.9 -9.25 19.0 Q-8.25 19.25 -6.15 17.85 -3.9 16.3 -2.85 16.3 -0.6 16.3 0.05 17.85 -2.25 16.95 -3.35 17.2 -4.85 17.5 -0.95 18.35" fill="#ffdea4" fill-rule="evenodd" stroke="none"/>
      <path d="M-7.75 22.9 L-9.25 25.6 -5.85 24.05 -6.15 28.0 -3.85 25.35 -3.45 28.8 -2.45 26.85 -0.9 31.45 -2.4 29.1 Q-3.2 29.85 -3.8 31.7 -4.5 33.7 -4.2 35.2 -4.95 32.3 -4.5 29.85 L-3.9 27.95 -5.6 29.45 Q-7.3 31.05 -7.45 31.7 L-7.25 26.2 -8.65 26.9 Q-10.1 27.7 -10.35 28.3 L-9.75 23.8 -12.5 24.3 -12.15 23.25 Q-11.6 22.1 -10.7 21.85 L-7.95 21.7 -10.7 23.4 Q-8.75 22.8 -7.75 22.9" fill="#ffdea4" fill-rule="evenodd" stroke="none"/>
      <path d="M-13.8 18.9 Q-13.65 17.1 -12.65 16.0 -11.65 14.95 -11.9 13.7 -11.25 15.75 -11.7 16.1 -13.6 17.6 -13.8 18.9" fill="#ffdea4" fill-rule="evenodd" stroke="none"/>
      <path d="M1.9 17.65 L2.85 17.25 4.8 17.4 6.95 19.05 Q8.35 20.1 9.4 19.95 L11.6 19.65 Q8.7 20.9 7.6 20.15 4.7 18.05 4.05 17.8 L1.9 17.65" fill="#ffdea4" fill-rule="evenodd" stroke="none"/>
      <path d="M14.3 18.85 Q12.1 17.65 11.25 17.75 12.35 17.15 12.75 17.2 13.5 17.3 14.3 18.85" fill="#cf9f6f" fill-rule="evenodd" stroke="none"/>
      <path d="M11.3 15.7 L11.8 14.8 Q12.45 13.8 13.3 13.4 12.75 13.8 12.65 14.25 12.55 14.85 13.45 14.8 13.45 15.05 11.3 15.7" fill="#cf9f6f" fill-rule="evenodd" stroke="none"/>
      <path d="M2.3 27.15 Q3.55 30.9 2.95 33.85 L2.3 27.15" fill="#ffdea4" fill-rule="evenodd" stroke="none"/>
      <path d="M1.45 31.15 Q2.45 34.9 2.05 38.5 L0.35 28.1 1.45 31.15" fill="#ffdea4" fill-rule="evenodd" stroke="none"/>
      <path d="M3.7 25.4 L5.05 26.1 Q6.5 27.15 6.8 28.75 L3.7 25.4" fill="#ffdea4" fill-rule="evenodd" stroke="none"/>
      <path d="M6.1 23.5 L7.4 24.15 Q8.85 25.1 9.3 26.75 L6.1 23.5" fill="#ffdea4" fill-rule="evenodd" stroke="none"/>
    </g>
  </defs>
</svg>
